Newaita-dark/.DP/24/teamviewer-indicator-busy.svg

<svg xmlns="http://www.w3.org/2000/svg" xmlns:xlink="http://www.w3.org/1999/xlink" width="24px" height="24px" viewBox="0 0 24 24" version="1.1">
<g id="surface1">
<path style=" stroke:none;fill-rule:nonzero;fill:rgb(93.333334%,93.333334%,93.333334%);fill-opacity:1;" d="M 11.90625 3.164062 C 6.960938 3.164062 2.976562 7.148438 2.976562 12.09375 C 2.976562 17.042969 6.960938 21.023438 11.90625 21.023438 C 13.835938 21.023438 15.621094 20.417969 17.078125 19.382812 L 16.304688 18.609375 C 15.84375 18.164062 15.757812 17.503906 15.964844 16.992188 C 16.171875 16.476562 16.695312 16.0625 17.335938 16.0625 C 17.742188 16.0625 18.125 16.226562 18.402344 16.515625 L 19.179688 17.289062 C 20.226562 15.828125 20.835938 14.039062 20.835938 12.09375 C 20.835938 7.148438 16.855469 3.164062 11.90625 3.164062 Z M 14.375 8.617188 C 14.644531 8.617188 14.898438 8.726562 15.085938 8.914062 L 17.566406 11.398438 C 17.953125 11.78125 17.953125 12.40625 17.566406 12.792969 L 15.085938 15.273438 C 14.835938 15.53125 14.472656 15.632812 14.125 15.539062 C 13.78125 15.449219 13.515625 15.179688 13.421875 14.835938 C 13.335938 14.492188 13.4375 14.125 13.6875 13.875 L 14.488281 13.078125 C 14.453125 13.082031 14.421875 13.082031 14.390625 13.082031 L 9.328125 13.082031 L 10.125 13.875 C 10.382812 14.125 10.484375 14.492188 10.390625 14.835938 C 10.300781 15.179688 10.03125 15.449219 9.6875 15.539062 C 9.34375 15.632812 8.976562 15.53125 8.726562 15.273438 L 6.25 12.792969 C 5.859375 12.40625 5.859375 11.78125 6.25 11.398438 L 8.726562 8.914062 C 8.90625 8.734375 9.148438 8.625 9.40625 8.617188 C 9.8125 8.605469 10.1875 8.84375 10.34375 9.21875 C 10.507812 9.59375 10.417969 10.03125 10.125 10.3125 L 9.328125 11.109375 L 14.390625 11.109375 C 14.421875 11.109375 14.453125 11.109375 14.492188 11.109375 L 13.6875 10.3125 C 13.402344 10.03125 13.3125 9.605469 13.460938 9.234375 C 13.613281 8.859375 13.976562 8.617188 14.375 8.617188 Z M 15.382812 12.007812 C 15.390625 12.066406 15.390625 12.125 15.386719 12.179688 L 15.472656 12.09375 Z M 17.339844 17.054688 C 17.09375 17.054688 16.953125 17.183594 16.882812 17.363281 C 16.8125 17.539062 16.820312 17.730469 16.996094 17.898438 C 17 17.902344 17 17.90625 17 17.90625 L 17.859375 18.765625 C 18.101562 18.546875 18.335938 18.3125 18.554688 18.070312 L 17.695312 17.210938 C 17.695312 17.207031 17.695312 17.207031 17.691406 17.203125 C 17.601562 17.109375 17.472656 17.054688 17.339844 17.054688 Z M 17.339844 17.054688 "/>
<path style=" stroke:none;fill-rule:nonzero;fill:rgb(93.333334%,93.333334%,93.333334%);fill-opacity:1;" d="M 17.335938 16.5625 C 16.9375 16.5625 16.574219 16.804688 16.421875 17.175781 C 16.273438 17.546875 16.363281 17.976562 16.648438 18.257812 L 20.15625 21.765625 C 20.40625 22.019531 20.773438 22.121094 21.117188 22.03125 C 21.460938 21.941406 21.734375 21.671875 21.824219 21.328125 C 21.914062 20.984375 21.8125 20.617188 21.554688 20.367188 L 18.046875 16.859375 C 17.859375 16.667969 17.605469 16.5625 17.335938 16.5625 Z M 17.335938 16.5625 "/>
<path style=" stroke:none;fill-rule:nonzero;fill:rgb(93.333334%,93.333334%,93.333334%);fill-opacity:1;" d="M 20.835938 16.5625 C 20.582031 16.570312 20.335938 16.675781 20.15625 16.859375 L 16.648438 20.367188 C 16.394531 20.617188 16.289062 20.984375 16.382812 21.328125 C 16.472656 21.671875 16.742188 21.945312 17.085938 22.03125 C 17.429688 22.125 17.796875 22.023438 18.046875 21.765625 L 21.554688 18.257812 C 21.847656 17.96875 21.9375 17.539062 21.777344 17.164062 C 21.617188 16.789062 21.242188 16.546875 20.835938 16.5625 Z M 20.835938 16.5625 "/>
</g>
</svg>

<svg xmlns="http://www.w3.org/2000/svg" width="32" height="32" viewBox="0 0 24 24"><g fill="#bdbdbd"><path d="M11.906 3.164a8.912 8.912 0 0 0-8.93 8.93 8.913 8.913 0 0 0 8.93 8.933c1.934 0 3.715-.609 5.172-1.64l-.773-.778a1.486 1.486 0 0 1-.34-1.62c.207-.512.73-.927 1.375-.927.398 0 .785.165 1.062.45l.778.777a8.91 8.91 0 0 0 1.66-5.195 8.913 8.913 0 0 0-8.934-8.93zm2.473 5.453c.266 0 .52.106.707.297l2.48 2.484a.983.983 0 0 1 0 1.395l-2.48 2.48a.987.987 0 1 1-1.395-1.394l.797-.8c-.035.003-.066.003-.101.003H9.332l.793.797a.987.987 0 1 1-1.398 1.394l-2.48-2.48a.99.99 0 0 1 0-1.395l2.48-2.484a.99.99 0 0 1 1.621.305.992.992 0 0 1-.223 1.093l-.793.793h5.055c.035 0 .07.004.101.008l-.797-.8a.983.983 0 0 1-.226-1.079.98.98 0 0 1 .914-.617zm1.008 3.39c.004.06.004.118 0 .173l.086-.086zm1.953 5.048a.462.462 0 0 0-.457.308.46.46 0 0 0 .113.535c.004.004.004.004.004.008l.86.856c.245-.219.476-.45.695-.692l-.86-.86c0-.003 0-.003-.004-.007a.497.497 0 0 0-.351-.148zm0 0"/><path d="M17.34 16.559a.986.986 0 0 0-.914.617.981.981 0 0 0 .226 1.078l3.508 3.512a.987.987 0 0 0 .957.265.984.984 0 0 0 .438-1.664l-3.508-3.508a.984.984 0 0 0-.707-.3zm0 0"/><path d="M20.84 16.559a.993.993 0 0 0-.68.3l-3.508 3.508a.985.985 0 0 0 .434 1.664.983.983 0 0 0 .96-.265l3.509-3.512a.978.978 0 0 0 .222-1.09.992.992 0 0 0-.937-.605zm0 0"/></g></svg>
